X: 329
T: Hanchuan diao
L: 1/8
M: 2/4
K: G
d d c A [I:setbarnb 1]| 
A dA2 | 
A dA2 | 
d cA2 | 
A G/ A/G2 | 
d d F D | 
d GA2 | 
=F ED2 | 
D DG2 | 
A c/ A/G2 | 
A B/ A/G2 | 
A2z2 | 
A A/ d/G2 | 
A GD2 | 
A/ d/ GA2 | 
=f ED2 |]

@@@ Tune index: 9203
